X:6010
T:Ships Are Sailing,The. JMT034
O:england
M:6/8
L:1/8
Q:127
S:J.Moore,Tyneside,1841.(26a)
R:Quadrille
A:Northumbria
N:Fifes ad Drums
K:A
d|c2Ac2d|f2cA2g|a2ef2d|cecB2e|c2Ac2d|e2cA2g|a2ef2d|c3A2:|
|:c|(AcA)E2c|(AcA)E2d|c2ef2d|c3B2c|(AcA)"?"E2c|(AcA)E2d|c2ef2d|c3A2:|]


